X: 10783
T: The BALDERSTON QUADRILLES No. 3.--la Poule.
%R: air, jig
B: W. Hamilton "Universal Tune-Book" Vol. 1 Glasgow 1844 p.78 #3
S: http://imslp.org/wiki/Hamilton's_Universal_Tune-Book_(Various)
Z: 2016 John Chambers <jc:trillian.mit.edu>
N: The 1st strain has an initial repeat, but there are no other repeat symbols; not fixed.
M: 6/8
L: 1/8
K: Gm	% and Bb
% - - - - - - - - - - - - - - - - - - - - - - - - -
P: My boy Tammy.
d !segno!|:\
G2A B2c | d2=e f3 | (c2d) c2B | AFA cBA |\
G2A B2c | d2=e f3 | db2 a2g | dg2- g2 |]\
d |\
g2a b2g | f2e d2c | B2d f2d | dcB A2d |
("^>"g2b) ("^>"a2b) | ("^>"g2d) ("^>"d2c) | B2c d2c | BGD CB,D |\
G2A B2c | d2=e f3 | (c2d) c2B | AFA cBA |\
G2A B2c | d2=e f3 | db2 a2g | dgf edc |]
P: Hooly and Fairly.
K: Bb
B>cB def | c>dc efg | B>cB fdf | bag fed |\
e<ge d<fd | c>dc efg | b>ag f<df | B>cB "^>"dc"^D.C."A |]
% - - - - - - - - - - - - - - - - - - - - - - - - -

%%sep 1 1 500
%%sep 1 1 500

